!!!!SEGMENT: pl-cz--iii-454--002_maader-ludwik--litaniae-laurentanae-sancta-maria.krn
!!!cenid: 17xx:988
!!!COM: Maader, Ludwik
!!!COM-rismID: pe30020328
!!!CDT: <1794->1798
!!!CNT:
!!!OPR: Litaniae Laurentanae
!!!OTL: Sancta Maria
!!!OMV: 002
!!!PDT:
!!!AGN: Sacred; Mass
!!!SMS-siglum: PL-CZ
!!!SMS-shelfmark: III-454
!!!SMS-shelfwork: 001-002 M
!!!SMS-variant:
!!!SMS-altvar:
!!!NIFC-rismSourceID: 300000759
!!!NIFC-islandoraID: pl-cz:38517
!!!URL-pdf-islandora: https://repozytorium.nifc.pl/islandora/object/pl-cz%3A38517/datastream/PDF/view
!!!URL-scan:
!!!ONB-nifc: UWAGA: części Litanii: Kyrie, Sancta Maria, Rosa mystica, Salus infirmorum, Regina angelorum, Agnus Dei
!!!OMD: Andante
!!!AIN: 1 alto 3 empty 2 oboe 1 organ 1 tenor 2 violn 1 vox
!!!key: G
**kern	**fba	**dynam	**kern	**dynam	**kern	**dynam	**kern	**kern	**text	**kern	**text	**kern	**text	**kern	**kern	**kern	**kern
*part11	*part11	*part11	*part10	*part10	*part9	*part9	*part8	*part7	*part7	*part6	*part6	*part5	*part5	*part4	*part3	*part2	*part1
*staff11	*	*	*staff10	*	*staff9	*	*staff8	*staff7	*staff7	*staff6	*staff6	*staff5	*staff5	*staff4	*staff3	*staff2	*staff1
*Iorgan	*	*	*Ivioln	*	*Ivioln	*	*Iempty	*Itenor	*	*Ialto	*	*Ivox	*	*Iempty	*Iempty	*Ioboe	*Ioboe
*I"Organo	*	*	*I"Violino Secondo	*	*I"Violino Primo	*	*I"Baſso	*I"Tenore	*	*I"Alto	*	*I"Canto	*	*I"Clarino Secondo in D	*I"Clarino Primo in D	*I"Oboe Secondo	*I"Oboe Primo
*I'org	*	*	*I'vl 2	*	*I'vl 1	*	*I'B	*I'T	*	*I'A	*	*I'S	*	*I'cl 2 in D	*I'clno 1 in D	*I'ob 2	*I'ob 1
*ICklav	*	*	*ICstr	*	*ICstr	*	*ICvox	*ICvox	*	*ICvox	*	*ICvox	*	*ICbras	*ICbras	*ICww	*ICww
*clefF4	*	*	*clefG2	*	*clefG2	*	*clefF4	*clefC4	*	*clefC3	*	*clefC1	*	*clefG2	*clefG2	*clefG2	*clefG2
*	*	*	*	*	*	*	*	*	*	*	*	*	*	*ITrd-1c-2	*ITrd-1c-2	*	*
*k[f#]	*	*	*k[f#]	*	*k[f#]	*	*k[f#]	*k[f#]	*	*k[f#]	*	*k[f#]	*	*k[f#]	*k[f#]	*k[f#]	*k[f#]
*G:	*	*	*G:	*	*G:	*	*G:	*G:	*	*G:	*	*G:	*	*G:	*G:	*G:	*G:
*M2/4	*	*	*M2/4	*	*M2/4	*	*M2/4	*M2/4	*	*M2/4	*	*M2/4	*	*M2/4	*M2/4	*M2/4	*M2/4
*	*	*	*	*	*	*below	*	*	*	*	*	*	*	*	*	*	*
!LO:TX:a:t=Solo.	!	!	!	!	!LO:TX:a:t=Solo vox	!	!	!LO:TX:a:t=Solo	!	!LO:TX:a:t=Solo	!	!LO:TX:a:t=Solo	!	!	!	!	!
!LO:TX:rj:a:t=andante.	!	!	!LO:TX:rj:a:t=andante	!	!LO:TX:rj:a:t=andante	!	!LO:TX:a:t=Tacet	!LO:TX:rj:a:t=Andante	!	!LO:TX:rj:a:t=andante	!	!LO:TX:rj:a:t=and	!	!LO:TX:a:t=Tacet	!LO:TX:a:t=Tacet	!LO:TX:a:t=Tacet	!LO:TX:a:t=Tacet
!	!	!	!	!	!	!LO:DY:rj:a:t=piano.	!	!	!	!	!	!	!	!	!	!	!
8r	.	.	8dd\	.	8dd\	p	8ryy	8r	.	(8d\	San-	8r	.	8ryy	8ryy	8ryy	8ryy
=1	=1	=1	=1	=1	=1	=1	=1	=1	=1	=1	=1	=1	=1	=1	=1	=1	=1
.	.	.	8qqcc/	.	.	.	.	.	.	.	.	.	.	.	.	.	.
8G\	.	.	8b\L	.	8gg\L	.	2ryy	0r	.	8g\)	-cta	0r	.	2ryy	2ryy	2ryy	2ryy
*	*	*	*	*	*	*	*	*	*	*	*ij	*	*	*	*	*	*
!	!	!	!	!LO:DY:t=piano.	!	!	!	!	!	!	!	!	!	!	!	!	!
8r	.	.	8b\J	p	8gg\J	.	.	.	.	8g\	San-	.	.	.	.	.	.
8G\	.	.	8b\L	.	(16gg\LL	.	.	.	.	8g\	-cta	.	.	.	.	.	.
*	*	*	*	*	*	*	*	*	*	*	*Xij	*	*	*	*	*	*
.	.	.	.	.	16bb\	.	.	.	.	.	.	.	.	.	.	.	.
8r	.	.	(16bb\L	.	16ddd\	.	.	.	.	16dd\LL	Ma-	.	.	.	.	.	.
.	.	.	16gg\JJ)	.	16bb\JJ)	.	.	.	.	16b\JJ	.	.	.	.	.	.	.
=2	=2	=2	=2	=2	=2	=2	=2	=2	=2	=2	=2	=2	=2	=2	=2	=2	=2
8F#\L	6	.	8.ff#t\L	.	8.aaT\L	.	2ryy	.	.	8.a\L	-ri-	.	.	2ryy	2ryy	2ryy	2ryy
8D\	.	.	.	.	.	.	.	.	.	.	.	.	.	.	.	.	.
.	.	.	32gg\LL	.	(32bb\LL	.	.	.	.	32b\LL	.	.	.	.	.	.	.
.	.	.	32aa\JJJ	.	32ccc\JJJ)	.	.	.	.	32cc\JJJ	.	.	.	.	.	.	.
8G\J	.	.	8gg|\L	.	8bb|\L	.	.	.	.	8b\	-a	.	.	.	.	.	.
8r	.	.	(16gg\L	.	(16eee\L	.	.	.	.	16ee\LL	O-	.	.	.	.	.	.
.	.	.	16ee\JJ)	.	16ccc\JJ)	.	.	.	.	16cc\JJ	.	.	.	.	.	.	.
=3	=3	=3	=3	=3	=3	=3	=3	=3	=3	=3	=3	=3	=3	=3	=3	=3	=3
8r	.	.	8dd|\L	.	8bb|\L	.	2ryy	.	.	8b\	-ra	.	.	2ryy	2ryy	2ryy	2ryy
!LO:TX:t=P:problem=mixed beam	!	!	!	!	!	!	!	!	!	!	!	!	!	!	!	!	!
8C\L	6	.	(16ee\L	.	(16ccc\L	.	.	.	.	16cc\LL	pro	.	.	.	.	.	.
.	.	.	16cc\JJ)	.	16aa\JJ)	.	.	.	.	16a\JJ	.	.	.	.	.	.	.
.	.	.	8qqcc/	.	.	.	.	.	.	.	.	.	.	.	.	.	.
8D\	.	.	(8b|\L	.	8gg|\L	.	.	.	.	8g\	no-	.	.	.	.	.	.
8DD/J	.	.	16cc\L	.	(16aa\L	.	.	.	.	16a\LL	.	.	.	.	.	.	.
.	.	.	16a\JJ)	.	16ff#\JJ)	.	.	.	.	(16f#\JJ	.	.	.	.	.	.	.
!	!	!	!	!	!LO:LB:g=original	!	!	!	!	!	!	!	!	!	!	!	!
=4	=4	=4	=4	=4	=4	=4	=4	=4	=4	=4	=4	=4	=4	=4	=4	=4	=4
!LO:TX:t=P:problem=mixed beam	!	!	!	!	!	!LO:DY:b:t=for	!	!	!	!	!	!	!	!	!	!	!
8GG/L	.	.	8b/L	f	8gg\L	f	2ryy	.	.	8g\)	.	.	.	2ryy	2ryy	2ryy	2ryy
8D\	.	.	(32d/LL	.	(32dd\LL	.	.	.	.	8g\	-bis	.	.	.	.	.	.
.	.	.	32c/	.	32cc\	.	.	.	.	.	.	.	.	.	.	.	.
.	.	.	32B/	.	32b\	.	.	.	.	.	.	.	.	.	.	.	.
.	.	.	32A/JJJ)	.	32a\JJJ)	.	.	.	.	.	.	.	.	.	.	.	.
!	!	!	!	!	!	!	!	!	!	!LO:LB:g=original	!	!	!	!	!	!	!
!	!	!	!	!	!LO:TX:t=P:problem=mixed beam	!LO:DY:b:t=pia	!	!	!	!	!	!	!	!	!	!	!
8G\J	.	.	8G/L	.	8g/L	p	.	.	.	8r	.	.	.	.	.	.	.
8r	.	.	8d/J	p	8dd\J	.	.	.	.	(8d\	San-	.	.	.	.	.	.
!	!	!	!LO:LB:g=original	!	!	!	!	!	!	!	!	!	!	!	!	!	!
=5	=5	=5	=5	=5	=5	=5	=5	=5	=5	=5	=5	=5	=5	=5	=5	=5	=5
8G\	.	.	8b\L	.	8gg\L	.	2ryy	0r	.	8g\)	.	0r	.	2ryy	2ryy	2ryy	2ryy
8r	.	.	8b\J	.	8gg\J	.	.	.	.	8g\	-cta	.	.	.	.	.	.
8G\	.	.	8b\L	.	(16gg\LL	.	.	.	.	8g\L	De-	.	.	.	.	.	.
.	.	.	.	.	16bb\	.	.	.	.	.	.	.	.	.	.	.	.
8r	.	.	16bb\L	.	16ddd\	.	.	.	.	16dd\L	-i	.	.	.	.	.	.
.	.	.	16gg\JJ	.	16bb\JJ)	.	.	.	.	16b\JJ	.	.	.	.	.	.	.
!LO:LB:g=original	!	!	!	!	!	!	!	!	!	!	!	!	!	!	!	!	!
=6	=6	=6	=6	=6	=6	=6	=6	=6	=6	=6	=6	=6	=6	=6	=6	=6	=6
8F#\L	6	.	8.ff#t\L	.	(8.aa\L	.	2ryy	.	.	8.a\L	Ge-	.	.	2ryy	2ryy	2ryy	2ryy
8D\	.	.	.	.	.	.	.	.	.	.	.	.	.	.	.	.	.
.	.	.	32gg\LL	.	32bb\LL	.	.	.	.	32b\LL	-ni-	.	.	.	.	.	.
.	.	.	32aa\JJJ	.	32ccc\JJJ)	.	.	.	.	32cc\JJJ	.	.	.	.	.	.	.
8G\J	.	.	8gg|\L	.	8bb|\L	.	.	.	.	8b\	-trix	.	.	.	.	.	.
8r	.	.	16gg\L	.	(16eee\L	.	.	.	.	16ee\LL	O-	.	.	.	.	.	.
.	.	.	16ee\JJ	.	16ccc\JJ)	.	.	.	.	16cc\JJ	.	.	.	.	.	.	.
=7	=7	=7	=7	=7	=7	=7	=7	=7	=7	=7	=7	=7	=7	=7	=7	=7	=7
8r	.	.	8dd|\L	.	8bb|\L	.	2ryy	.	.	8b\	-ra	.	.	2ryy	2ryy	2ryy	2ryy
!LO:TX:t=P:problem=mixed beam	!	!	!	!	!	!	!	!	!	!	!	!	!	!	!	!	!
8C\L	6	.	(16ee\L	.	(16ccc\L	.	.	.	.	16cc\LL	O-	.	.	.	.	.	.
.	.	.	16cc\JJ)	.	16aa\JJ)	.	.	.	.	16a\JJ	.	.	.	.	.	.	.
.	.	.	8qqcc/	.	.	.	.	.	.	.	.	.	.	.	.	.	.
8D\	4	.	8b\L	.	8gg|\L	.	.	.	.	8g\	-ra	.	.	.	.	.	.
8DD/J	3	.	(16cc\L	.	(16aa\L	.	.	.	.	16a\LL	pro	.	.	.	.	.	.
.	.	.	16a\JJ)	.	16ff#\JJ)	.	.	.	.	16f#\JJ	.	.	.	.	.	.	.
=8	=8	=8	=8	=8	=8	=8	=8	=8	=8	=8	=8	=8	=8	=8	=8	=8	=8
!LO:TX:t=P:problem=mixed beam	!	!	!LO:TX:t=P:problem=mixed beam	!	!	!	!	!	!	!	!	!	!	!	!	!	!
.	.	.	.	.	8qqff#/	.	.	.	.	.	.	.	.	.	.	.	.
8GG/L	.	.	8b\L	f	8gg\L	.	2ryy	.	.	8g\	no-	.	.	2ryy	2ryy	2ryy	2ryy
8G\	.	.	8d/J	.	16dd\L	.	.	.	.	8g\	-bis	.	.	.	.	.	.
.	.	.	.	.	16b\JJ	.	.	.	.	.	.	.	.	.	.	.	.
!	!	!	!LO:TX:t=P:problem=mixed beam	!	!LO:TX:t=P:problem=mixed beam	!	!	!	!	!	!	!	!	!	!	!	!
8GG/J	.	.	8G/L	.	8g/L	.	.	.	.	8r	.	.	.	.	.	.	.
8r	.	.	16bb\L	.	16ddd\L	.	.	.	.	16dd\	San-	.	.	.	.	.	.
.	.	.	16gg/JJ	.	16bb\JJ	.	.	.	.	16b\	-cta	.	.	.	.	.	.
!	!	!	!	!	!	!	!	!	!	!LO:LB:g=original	!	!	!	!	!	!	!
=9	=9	=9	=9	=9	=9	=9	=9	=9	=9	=9	=9	=9	=9	=9	=9	=9	=9
.	.	.	.	.	.	.	.	.	.	8qqa/	.	.	.	.	.	.	.
8r	.	.	8ff#\L	p	8aa\L	.	2ryy	0r	.	8a\	Vir-	0r	.	2ryy	2ryy	2ryy	2ryy
16d|\LL	.	.	(32ff#\LL	.	(32aa\LL	.	.	.	.	8a\	-go	.	.	.	.	.	.
.	.	.	32ee\	.	32gg\	.	.	.	.	.	.	.	.	.	.	.	.
16A|\JJ	.	.	32dd\	.	32ff#\	.	.	.	.	.	.	.	.	.	.	.	.
.	.	.	32ee\JJJ)	.	32gg\JJJ)	.	.	.	.	.	.	.	.	.	.	.	.
8D|\	.	.	8ff#\L	.	8aa|\L	.	.	.	.	8r	.	.	.	.	.	.	.
8r	.	.	16bb\L	.	(16ddd\L	.	.	.	.	16dd\	Vir-	.	.	.	.	.	.
.	.	.	16gg\JJ	.	16bb\JJ)	.	.	.	.	16b\	-go	.	.	.	.	.	.
=10	=10	=10	=10	=10	=10	=10	=10	=10	=10	=10	=10	=10	=10	=10	=10	=10	=10
8r	.	.	8ff#\L	.	8aa\L	.	2ryy	.	.	16a\	Vir-	.	.	2ryy	2ryy	2ryy	2ryy
.	.	.	.	.	.	.	.	.	.	16a\	-gi-	.	.	.	.	.	.
16d'\LL	.	.	(32ff#\LL	.	(32aa\LL	.	.	.	.	8a\	-num	.	.	.	.	.	.
.	.	.	32ee\	.	32gg\	.	.	.	.	.	.	.	.	.	.	.	.
16A'\JJ	.	.	32dd\	.	32ff#\	.	.	.	.	.	.	.	.	.	.	.	.
.	.	.	32ee\JJJ)	.	32gg\JJJ)	.	.	.	.	.	.	.	.	.	.	.	.
8D\	.	.	8ff#\L	.	8aa\L	.	.	.	.	8r	.	.	.	.	.	.	.
8r	.	.	16ff#\L	.	16ddd\L	.	.	.	.	16dd\LL	O-	.	.	.	.	.	.
.	.	.	16ee\JJ	.	16ccc#X\JJ	.	.	.	.	16cc#X\JJ	.	.	.	.	.	.	.
!	!	!	!LO:LB:g=original	!	!	!	!	!	!	!	!	!	!	!	!	!	!
=11	=11	=11	=11	=11	=11	=11	=11	=11	=11	=11	=11	=11	=11	=11	=11	=11	=11
8r	.	.	8ff#\L	.	8ddd\L	.	2ryy	.	.	8dd\	-ra	.	.	2ryy	2ryy	2ryy	2ryy
!LO:TX:t=P:problem=mixed beam	!	!	!LO:TUP:a:global:problem=klamra łukowa, kropka zamiast numeru	!	!LO:TUP:a:global:problem=klamra łukowa, kropka zamiast numeru	!	!	!	!	!	!	!	!	!	!	!	!
8G\L	6	.	24gg\L	.	24bb\L	.	.	.	.	24b\LL	pro	.	.	.	.	.	.
.	.	.	24ff#\	.	24aa\	.	.	.	.	24a\	.	.	.	.	.	.	.
.	.	.	24ee\JJ	.	24gg\JJ	.	.	.	.	24g\JJ	.	.	.	.	.	.	.
8A\	4	.	8dd\L	.	8ff#\L	.	.	.	.	8f#\L	no-	.	.	.	.	.	.
8AA/J	3	.	8cc#X\J	.	8eeT\J	.	.	.	.	8e\J	.	.	.	.	.	.	.
=12	=12	=12	=12	=12	=12	=12	=12	=12	=12	=12	=12	=12	=12	=12	=12	=12	=12
!LO:TX:t=P:problem=mixed beam	!	!	!	!	!	!	!	!	!	!	!	!	!	!	!	!	!
.	.	.	.	.	.	.	.	.	.	8qqe/	.	.	.	.	.	.	.
8D\L	.	f	8.dd\L	.	8.dd\L	f	2ryy	.	.	4d\	-bis	.	.	2ryy	2ryy	2ryy	2ryy
8DD/J	.	.	.	.	.	.	.	.	.	.	.	.	.	.	.	.	.
.	.	.	16ff#\Jk	f	16aa\Jk	.	.	.	.	.	.	.	.	.	.	.	.
16D\LL	.	.	(32ff#\LLL	.	(32aa\LLL	.	.	.	.	4r	.	.	.	.	.	.	.
.	.	.	32ee\	.	32gg\	.	.	.	.	.	.	.	.	.	.	.	.
16D\	.	.	32dd\	.	32ff#\	.	.	.	.	.	.	.	.	.	.	.	.
.	.	.	32ee\JJJ)	.	32gg\JJJ)	.	.	.	.	.	.	.	.	.	.	.	.
!	!	!	!LO:TX:t=P:problem=mixed beam	!	!	!	!	!	!	!	!	!	!	!	!	!	!
16F#\	6	.	16ff#\LL	.	16aa\LL	.	.	.	.	.	.	.	.	.	.	.	.
16F#\JJ	5	.	16a/JJ	.	16ccn\JJ	.	.	.	.	.	.	.	.	.	.	.	.
!LO:LB:g=original	!	!	!	!	!	!	!	!	!	!	!	!	!	!	!	!	!
=13	=13	=13	=13	=13	=13	=13	=13	=13	=13	=13	=13	=13	=13	=13	=13	=13	=13
!	!	!	!LO:TX:t=P:problem=mixed beam	!	!	!	!	!	!	!	!	!	!	!	!	!	!
16G\LL	4	.	16a/LL	.	(16cc\LL	.	2ryy	0r	.	0r	.	0r	.	2ryy	2ryy	2ryy	2ryy
16G\	3	.	16g/	.	16b\)	.	.	.	.	.	.	.	.	.	.	.	.
16G\	.	.	16g/	.	16b|\	.	.	.	.	.	.	.	.	.	.	.	.
16F#\JJ	.	.	16bb\JJ	.	16bb|\JJ	.	.	.	.	.	.	.	.	.	.	.	.
16E\LL	.	.	(32bb\LLL	.	(32bb\LLL	.	.	.	.	.	.	.	.	.	.	.	.
.	.	.	32aa\	.	32aa\	.	.	.	.	.	.	.	.	.	.	.	.
16E\	.	.	32gg#X\	.	32gg#X\	.	.	.	.	.	.	.	.	.	.	.	.
.	.	.	32aa\JJJ)	.	32aa\J)	.	.	.	.	.	.	.	.	.	.	.	.
!LO:SIC:s:v:t=16G#	!	!	!LO:TX:t=P:problem=mixed beam	!	!	!	!	!	!	!	!	!	!	!	!	!	!
16G\	.	.	16bb\LL	.	16bb\	.	.	.	.	.	.	.	.	.	.	.	.
!LO:SIC:s:v:t=16G#	!	!	!	!	!	!	!	!	!	!	!	!	!	!	!	!	!
16G\JJ	.	.	16b/JJ	.	16dd\JJ	.	.	.	.	.	.	.	.	.	.	.	.
=14	=14	=14	=14	=14	=14	=14	=14	=14	=14	=14	=14	=14	=14	=14	=14	=14	=14
16A\LL	.	.	16b/LL	.	(16dd\LL	.	2ryy	.	.	.	.	.	.	2ryy	2ryy	2ryy	2ryy
16E\JJ	.	.	16a/	.	16cc#X\	.	.	.	.	.	.	.	.	.	.	.	.
8AA/	.	.	16a/	.	16cc#\	.	.	.	.	.	.	.	.	.	.	.	.
.	.	.	16A/JJ	.	16a\JJ)	.	.	.	.	.	.	.	.	.	.	.	.
!	!	!	!	!	!LO:LB:g=original	!	!	!	!	!	!	!	!	!	!	!	!
4r	.	.	16d/LL	p	(16dd\LL	p	.	.	.	.	.	.	.	.	.	.	.
.	.	.	16e/	.	16ee\	.	.	.	.	.	.	.	.	.	.	.	.
.	.	.	16f#/	.	16ff#\	.	.	.	.	.	.	.	.	.	.	.	.
.	.	.	16g/JJ	.	16gg\JJ)	.	.	.	.	.	.	.	.	.	.	.	.
=15	=15	=15	=15	=15	=15	=15	=15	=15	=15	=15	=15	=15	=15	=15	=15	=15	=15
2r	.	.	16f#/LL	.	(16ff#\LL	.	2ryy	.	.	.	.	.	.	2ryy	2ryy	2ryy	2ryy
.	.	.	16g/	.	16gg\	.	.	.	.	.	.	.	.	.	.	.	.
.	.	.	16f#/	.	16ff#\	.	.	.	.	.	.	.	.	.	.	.	.
.	.	.	16g/JJ	.	16gg\JJ)	.	.	.	.	.	.	.	.	.	.	.	.
.	.	.	16a\LL	.	16aa'\LL	.	.	.	.	.	.	.	.	.	.	.	.
.	.	.	16b\	.	16bb'\	.	.	.	.	.	.	.	.	.	.	.	.
.	.	.	16cc#X\	.	16ccc#X'\	.	.	.	.	.	.	.	.	.	.	.	.
.	.	.	16dd\JJ	.	16ddd'\JJ	.	.	.	.	.	.	.	.	.	.	.	.
!	!	!	!LO:LB:g=original	!	!	!	!	!	!	!	!	!	!	!	!	!	!
=16	=16	=16	=16	=16	=16	=16	=16	=16	=16	=16	=16	=16	=16	=16	=16	=16	=16
*tremolo	*	*	*	*	*	*	*	*	*	*	*	*	*	*	*	*	*
16d\LL	.	.	24a/LL	f	24aa\LL	.	2ryy	.	.	.	.	.	.	2ryy	2ryy	2ryy	2ryy
.	.	.	24f#/	.	24ff#\	.	.	.	.	.	.	.	.	.	.	.	.
16d\	.	.	.	.	.	.	.	.	.	.	.	.	.	.	.	.	.
.	.	.	24d/JJ	.	24dd\JJ	.	.	.	.	.	.	.	.	.	.	.	.
16d\	.	.	24dd/LL	.	24ddd\LL	.	.	.	.	.	.	.	.	.	.	.	.
.	.	.	24a/	.	24aa\	.	.	.	.	.	.	.	.	.	.	.	.
16d\JJ	.	.	.	.	.	.	.	.	.	.	.	.	.	.	.	.	.
.	.	.	24f#/JJ	.	24ff#\JJ	.	.	.	.	.	.	.	.	.	.	.	.
16d\LL	.	.	24a/LL	.	24aa\LL	.	.	.	.	.	.	.	.	.	.	.	.
.	.	.	24f#/	.	24ff#\	.	.	.	.	.	.	.	.	.	.	.	.
16d\	.	.	.	.	.	.	.	.	.	.	.	.	.	.	.	.	.
.	.	.	24d/JJ	.	24dd\JJ	.	.	.	.	.	.	.	.	.	.	.	.
16d\	.	.	24dd/LL	.	24ddd\LL	.	.	.	.	.	.	.	.	.	.	.	.
.	.	.	24a/	.	24aa\	.	.	.	.	.	.	.	.	.	.	.	.
16d\JJ	.	.	.	.	.	.	.	.	.	.	.	.	.	.	.	.	.
.	.	.	24f#/JJ	.	24ff#\JJ	.	.	.	.	.	.	.	.	.	.	.	.
*Xtremolo	*	*	*	*	*	*	*	*	*	*	*	*	*	*	*	*	*
=17	=17	=17	=17	=17	=17	=17	=17	=17	=17	=17	=17	=17	=17	=17	=17	=17	=17
16d\LL	.	.	24a/LL	.	24aa\LL	.	2ryy	2r	.	0r	.	0r	.	2ryy	2ryy	2ryy	2ryy
.	.	.	24f#/	.	24ff#\	.	.	.	.	.	.	.	.	.	.	.	.
16d\	.	.	.	.	.	.	.	.	.	.	.	.	.	.	.	.	.
.	.	.	24d/JJ	.	24dd\JJ	.	.	.	.	.	.	.	.	.	.	.	.
16G\	.	.	24dd/LL	.	24ddd\LL	.	.	.	.	.	.	.	.	.	.	.	.
.	.	.	24a/	.	24bb\	.	.	.	.	.	.	.	.	.	.	.	.
16G\JJ	.	.	.	.	.	.	.	.	.	.	.	.	.	.	.	.	.
.	.	.	24f#/JJ	.	24gg\JJ	.	.	.	.	.	.	.	.	.	.	.	.
!LO:TX:t=P:problem=mixed beam	!	!	!	!	!	!	!	!	!	!	!	!	!	!	!	!	!
16A\LL	.	.	8a/L	.	8ff#\L	.	.	.	.	.	.	.	.	.	.	.	.
16A\	.	.	.	.	.	.	.	.	.	.	.	.	.	.	.	.	.
!	!	!	!LO:SIC:s:v:t=8cc#	!	!	!	!	!	!	!	!	!	!	!	!	!	!
16AA/	.	.	8cc/J	.	8eeT\J	.	.	.	.	.	.	.	.	.	.	.	.
16AA/JJ	.	.	.	.	.	.	.	.	.	.	.	.	.	.	.	.	.
=18	=18	=18	=18	=18	=18	=18	=18	=18	=18	=18	=18	=18	=18	=18	=18	=18	=18
!LO:TX:t=P:problem=mixed beam	!	!	!	!	!	!	!	!	!	!	!	!	!	!	!	!	!
8D/L	.	.	8dd/L	.	8dd/L	.	2ryy	4r	.	.	.	.	.	2ryy	2ryy	2ryy	2ryy
8d\	.	.	(32a/LL	.	(32a/LL	.	.	.	.	.	.	.	.	.	.	.	.
.	.	.	32g/	.	32g/	.	.	.	.	.	.	.	.	.	.	.	.
.	.	.	32f#/	.	32f#/	.	.	.	.	.	.	.	.	.	.	.	.
.	.	.	32e/JJJ)	.	32e/JJJ)	.	.	.	.	.	.	.	.	.	.	.	.
!	!	!	!	!	!	!LO:DY:t=pia&colon;	!	!	!	!	!	!	!	!	!	!	!
8D/J	.	.	8d/L	.	8d/L	p	.	8r	.	.	.	.	.	.	.	.	.
8r	.	.	8a/J	p	8a/J	.	.	(8A\	Ma-	.	.	.	.	.	.	.	.
!	!	!	!	!	!LO:LB:g=original	!	!	!	!	!	!	!	!	!	!	!	!
=19	=19	=19	=19	=19	=19	=19	=19	=19	=19	=19	=19	=19	=19	=19	=19	=19	=19
!	!	!LO:DY:t=pia&colon;	!LO:TX:t=P:problem=mixed beam	!	!	!	!	!	!	!	!	!	!	!	!	!	!
8D\	.	p	8f#/L	.	8dd\L	.	2ryy	8d\)	.	.	.	.	.	2ryy	2ryy	2ryy	2ryy
8r	.	.	8f#/	.	8dd\J	.	.	8d\	-ter	.	.	.	.	.	.	.	.
*	*	*	*	*	*	*	*	*	*ij	*	*	*	*	*	*	*	*
8D\	.	.	8f#/	.	16dd\LL	.	.	8d\	Ma-	.	.	.	.	.	.	.	.
.	.	.	.	.	16ff#\	.	.	.	.	.	.	.	.	.	.	.	.
8r	.	.	8dd\J	.	16aa\	.	.	8f#\	-ter	.	.	.	.	.	.	.	.
*	*	*	*	*	*	*	*	*	*Xij	*	*	*	*	*	*	*	*
.	.	.	.	.	16ff#\JJ	.	.	.	.	.	.	.	.	.	.	.	.
!LO:LB:g=original	!	!	!	!	!	!	!	!	!	!	!	!	!	!	!	!	!
=20	=20	=20	=20	=20	=20	=20	=20	=20	=20	=20	=20	=20	=20	=20	=20	=20	=20
8C#X/L	.	.	8.cc#Xt\L	.	8.eeT\L	.	2ryy	8.e\L	Chri-	.	.	.	.	2ryy	2ryy	2ryy	2ryy
8AA/	.	.	.	.	.	.	.	.	.	.	.	.	.	.	.	.	.
.	.	.	32dd\LL	.	32ff#\LL	.	.	32f#\LL	.	.	.	.	.	.	.	.	.
.	.	.	32ee\JJJ	.	32gg\JJJ	.	.	32g\JJJ	.	.	.	.	.	.	.	.	.
8D/J	.	.	8dd|\L	.	8ff#\L	.	.	8f#\	-sti	.	.	.	.	.	.	.	.
8r	.	.	(16dd\L	.	(16bb\L	.	.	8g\	di-	.	.	.	.	.	.	.	.
.	.	.	16b\JJ)	.	16gg\JJ)	.	.	.	.	.	.	.	.	.	.	.	.
!	!	!	!LO:PB:g=original	!	!	!	!	!LO:LB:g=original	!	!	!	!	!	!	!	!	!
=21	=21	=21	=21	=21	=21	=21	=21	=21	=21	=21	=21	=21	=21	=21	=21	=21	=21
8r	.	.	8a|/L	.	8ff#\L	.	2ryy	8f#\	-vi-	0r	.	0r	.	2ryy	2ryy	2ryy	2ryy
!LO:TX:t=P:problem=mixed beam	!	!	!	!	!	!	!	!	!	!	!	!	!	!	!	!	!
.	.	.	.	.	8qgg/	.	.	.	.	.	.	.	.	.	.	.	.
8G\L	.	.	(16b/L	.	16gg\L	.	.	16g\LL	-na	.	.	.	.	.	.	.	.
.	.	.	16g/JJ)	.	16ee\JJ	.	.	16e\JJ	.	.	.	.	.	.	.	.	.
.	.	.	.	.	8qdd/	.	.	.	.	.	.	.	.	.	.	.	.
8A\	4	.	8f#|/L	.	8dd\L	.	.	8d\	gra-	.	.	.	.	.	.	.	.
8AA/J	3	.	(16g/L	.	16ee\L	.	.	(16e\LL	-ti-	.	.	.	.	.	.	.	.
.	.	.	16e/JJ)	.	16cc#X\JJ	.	.	16c#X\JJ)	.	.	.	.	.	.	.	.	.
=22	=22	=22	=22	=22	=22	=22	=22	=22	=22	=22	=22	=22	=22	=22	=22	=22	=22
8D/L	.	.	8f#/L	f	8dd/L	f	2ryy	4d\	-ae	.	.	.	.	2ryy	2ryy	2ryy	2ryy
8AA/	.	.	(32a/LL	.	(32a/LL	.	.	.	.	.	.	.	.	.	.	.	.
.	.	.	32g/	.	32g/	.	.	.	.	.	.	.	.	.	.	.	.
.	.	.	32f#/	.	32f#/	.	.	.	.	.	.	.	.	.	.	.	.
.	.	.	32e/JJJ)	.	32e/JJJ)	.	.	.	.	.	.	.	.	.	.	.	.
8DD/J	.	.	8d/L	.	8d/L	.	.	8r	.	.	.	.	.	.	.	.	.
8r	.	.	8a/J	.	8a/J	p	.	8A\	Ma-	.	.	.	.	.	.	.	.
=23	=23	=23	=23	=23	=23	=23	=23	=23	=23	=23	=23	=23	=23	=23	=23	=23	=23
!	!	!	!LO:TX:t=P:problem=mixed beam	!	!	!	!	!	!	!	!	!	!	!	!	!	!
8D\	.	.	8f#/L	.	8dd\L	.	2ryy	8d\	-ter	.	.	.	.	2ryy	2ryy	2ryy	2ryy
*	*	*	*	*	*	*	*	*	*ij	*	*	*	*	*	*	*	*
8r	.	.	8f#/	.	8dd\J	.	.	8d\	Ma-	.	.	.	.	.	.	.	.
8D\	.	.	8f#/	.	(16dd\LL	.	.	8d\	-ter	.	.	.	.	.	.	.	.
*	*	*	*	*	*	*	*	*	*Xij	*	*	*	*	*	*	*	*
.	.	.	.	.	16ff#\	.	.	.	.	.	.	.	.	.	.	.	.
8r	.	.	8dd\J	.	16aa\	.	.	8f#\	pu-	.	.	.	.	.	.	.	.
.	.	.	.	.	16ff#\JJ)	.	.	.	.	.	.	.	.	.	.	.	.
=24	=24	=24	=24	=24	=24	=24	=24	=24	=24	=24	=24	=24	=24	=24	=24	=24	=24
8C#X/L	6	.	8.cc#X\L	.	8.eeT\L	.	2ryy	8.e\	-ris-	.	.	.	.	2ryy	2ryy	2ryy	2ryy
8AA/	.	.	.	.	.	.	.	.	.	.	.	.	.	.	.	.	.
.	.	.	32dd\LL	.	(32ff#\LL	.	.	32f#\LLL	-si-	.	.	.	.	.	.	.	.
.	.	.	32ee\JJJ	.	32gg\JJJ)	.	.	32g\JJJ	.	.	.	.	.	.	.	.	.
!	!	!	!	!	!LO:LB:g=original	!	!	!	!	!	!	!	!	!	!	!	!
8D/J	.	.	8dd\L	.	8ff#|\L	.	.	8f#\	-ma	.	.	.	.	.	.	.	.
8r	.	.	16dd\L	.	(16bb\L	.	.	8g\	Ma-	.	.	.	.	.	.	.	.
.	.	.	16b\JJ	.	16gg\JJ)	.	.	.	.	.	.	.	.	.	.	.	.
=25	=25	=25	=25	=25	=25	=25	=25	=25	=25	=25	=25	=25	=25	=25	=25	=25	=25
8r	.	.	8a/L	.	8ff#\L	.	2ryy	8f#\	-ter	0r	.	0r	.	2ryy	2ryy	2ryy	2ryy
!LO:TX:t=P:problem=mixed beam	!	!	!	!	!	!	!	!	!	!	!	!	!	!	!	!	!
.	.	.	.	.	8qqgg/	.	.	.	.	.	.	.	.	.	.	.	.
8G\L	6	.	24b/L	.	(16gg\L	.	.	16g\LL	cas-	.	.	.	.	.	.	.	.
.	.	.	24a/	.	.	.	.	.	.	.	.	.	.	.	.	.	.
.	.	.	.	.	16ee\JJ)	.	.	16e\JJ	.	.	.	.	.	.	.	.	.
.	.	.	24g/JJ	.	.	.	.	.	.	.	.	.	.	.	.	.	.
8A\	4	.	8f#/L	.	8dd\L	.	.	8d\	-tis-	.	.	.	.	.	.	.	.
!	!	!	!	!	!	!	!	!LO:TX:b:t=VS.	!	!	!	!	!	!	!	!	!
8AA/J	3	.	24g/L	.	(16ee\L	.	.	8c#X\	-si-	.	.	.	.	.	.	.	.
.	.	.	24f#/	.	.	.	.	.	.	.	.	.	.	.	.	.	.
.	.	.	.	.	16cc#X\JJ)	.	.	.	.	.	.	.	.	.	.	.	.
.	.	.	24e/JJ	.	.	.	.	.	.	.	.	.	.	.	.	.	.
!	!	!	!	!	!	!	!	!LO:PB:g=original	!	!	!	!	!	!	!	!	!
=26	=26	=26	=26	=26	=26	=26	=26	=26	=26	=26	=26	=26	=26	=26	=26	=26	=26
!	!	!	!	!	!	!	!	!LO:SIC:s:v:t=8qc#	!	!	!	!	!	!	!	!	!
.	.	.	.	.	.	.	.	8qqc/	.	.	.	.	.	.	.	.	.
8D/L	.	.	8f#/L	.	8dd\L	.	2ryy	4d\	-ma	.	.	.	.	2ryy	2ryy	2ryy	2ryy
8AA/	.	.	16a/L	.	16a\L	.	.	.	.	.	.	.	.	.	.	.	.
.	.	.	16f#/JJ	.	16f#\JJ	.	.	.	.	.	.	.	.	.	.	.	.
!	!	!	!LO:TX:t=P:problem=mixed beam	!	!LO:TX:t=P:problem=mixed beam	!	!	!	!	!	!	!	!	!	!	!	!
8DD/J	.	.	8d/L	.	8d/L	.	.	8r	.	.	.	.	.	.	.	.	.
8r	.	.	8dd\J	.	(16ff#\L	f	.	16f#\LL	O-	.	.	.	.	.	.	.	.
.	.	.	.	.	16dd\JJ)	.	.	16d\JJ	.	.	.	.	.	.	.	.	.
!	!	!	!LO:LB:g=original	!	!	!	!	!	!	!	!	!	!	!	!	!	!
=27	=27	=27	=27	=27	=27	=27	=27	=27	=27	=27	=27	=27	=27	=27	=27	=27	=27
8r	.	.	8cc#X\L	.	8ee\L	.	2ryy	4e\	-ra	.	.	.	.	2ryy	2ryy	2ryy	2ryy
!LO:TX:t=P:problem=mixed beam	!	!	!	!	!	!	!	!	!	!	!	!	!	!	!	!	!
8A\L	.	.	(32cc#\LL	.	(32aa\LL	.	.	.	.	.	.	.	.	.	.	.	.
.	.	.	32b\	.	32gg#X\	.	.	.	.	.	.	.	.	.	.	.	.
.	.	.	32cc#\	.	32aa\	.	.	.	.	.	.	.	.	.	.	.	.
.	.	.	32dd\JJJ)	.	32bb\JJJ)	.	.	.	.	.	.	.	.	.	.	.	.
8AA/J	.	.	8cc#\L	p	8aa|\L	.	.	8r	.	.	.	.	.	.	.	.	.
*	*	*	*	*	*	*	*	*	*ij	*	*	*	*	*	*	*	*
8r	.	.	8dd\J	.	(16ff#\L	.	.	16f#\LL	O-	.	.	.	.	.	.	.	.
.	.	.	.	.	16dd\JJ)	.	.	16d\JJ	.	.	.	.	.	.	.	.	.
!LO:LB:g=original	!	!	!	!	!	!	!	!	!	!	!	!	!	!	!	!	!
=28	=28	=28	=28	=28	=28	=28	=28	=28	=28	=28	=28	=28	=28	=28	=28	=28	=28
!	!	!	!LO:SIC:s:v:t=8cc#	!	!	!	!	!	!	!	!	!	!	!	!	!	!
.	.	.	.	.	.	.	.	8qqd/	.	.	.	.	.	.	.	.	.
8r	.	.	8cc\L	.	8ee|\L	p	2ryy	4e\	-ra	.	.	.	.	2ryy	2ryy	2ryy	2ryy
*	*	*	*	*	*	*	*	*	*Xij	*	*	*	*	*	*	*	*
!LO:TX:t=P:problem=mixed beam	!	!	!LO:SIC:s:v:t=32cc#	!	!	!	!	!	!	!	!	!	!	!	!	!	!
8A\L	.	.	(32cc\LL	.	32aa\LL	.	.	.	.	.	.	.	.	.	.	.	.
.	.	.	32b\	.	(32gg#X\	.	.	.	.	.	.	.	.	.	.	.	.
!	!	!	!LO:SIC:s:v:t=32cc#	!	!	!	!	!	!	!	!	!	!	!	!	!	!
.	.	.	32cc\	.	32aa\	.	.	.	.	.	.	.	.	.	.	.	.
.	.	.	32dd\JJJ)	.	32bb\JJJ)	.	.	.	.	.	.	.	.	.	.	.	.
!	!	!	!	!	!LO:TX:t=P:problem=mixed beam	!	!	!	!	!	!	!	!	!	!	!	!
8AA/J	.	.	8cc\L	.	8aa\L	.	.	8r	.	.	.	.	.	.	.	.	.
8r	.	.	8a\J	.	16a/L	.	.	16A\LL	o-	.	.	.	.	.	.	.	.
.	.	.	.	.	16ggn\JJ	.	.	16g\JJ	.	.	.	.	.	.	.	.	.
=29	=29	=29	=29	=29	=29	=29	=29	=29	=29	=29	=29	=29	=29	=29	=29	=29	=29
!LO:TX:t=P:problem=mixed beam	!	!	!	!	!	!	!	!	!	!	!	!	!	!	!	!	!
8D\L	.	.	8a|/L	.	8ff#|\L	.	2ryy	8f#\	-ra	0r	.	0r	.	2ryy	2ryy	2ryy	2ryy
*	*	*	*	*	*	*	*	*	*ij	*	*	*	*	*	*	*	*
8G\	6	.	(16b/L	.	(16gg\L	.	.	16g\LL	o-	.	.	.	.	.	.	.	.
.	.	.	16g/JJ)	.	16ee\JJ)	.	.	16e\JJ	.	.	.	.	.	.	.	.	.
8A\	4	.	8f#|/L	.	8dd|\L	.	.	8d\	-ra	.	.	.	.	.	.	.	.
*	*	*	*	*	*	*	*	*	*Xij	*	*	*	*	*	*	*	*
8AA/J	3	.	(16g/L	.	(16ee\L	.	.	16e\LL	pro	.	.	.	.	.	.	.	.
.	.	.	16e/JJ)	.	16cc#X\JJ)	.	.	16c#X\JJ	.	.	.	.	.	.	.	.	.
!	!	!	!	!	!LO:LB:g=original	!	!	!	!	!	!	!	!	!	!	!	!
=30	=30	=30	=30	=30	=30	=30	=30	=30	=30	=30	=30	=30	=30	=30	=30	=30	=30
*2\right	*	*	*	*	*	*	*	*2\right	*	*	*	*	*	*	*	*	*
2D\	.	.	8f#/L	.	8dd|\L	.	2ryy	2d\	no-	.	.	.	.	2ryy	2ryy	2ryy	2ryy
.	.	.	16f#/L	.	(16ff#\L	.	.	.	.	.	.	.	.	.	.	.	.
.	.	.	16a/JJ	.	16aa\JJ)	.	.	.	.	.	.	.	.	.	.	.	.
.	.	.	16.g/LL	.	(16.gg\LL	.	.	.	.	.	.	.	.	.	.	.	.
.	.	.	32b/K	.	32bb\K)	.	.	.	.	.	.	.	.	.	.	.	.
.	.	.	16.e/	.	(16.ee\	.	.	.	.	.	.	.	.	.	.	.	.
.	.	.	32g/JJk	.	32ccc#X\JJk)	.	.	.	.	.	.	.	.	.	.	.	.
=31	=31	=31	=31	=31	=31	=31	=31	=31	=31	=31	=31	=31	=31	=31	=31	=31	=31
4D\	.	.	8f#/L	.	8ddd\L	.	2ryy	2e\	.	.	.	.	.	2ryy	2ryy	2ryy	2ryy
.	.	.	16.f#/L	.	16ff#\L	.	.	.	.	.	.	.	.	.	.	.	.
.	.	.	.	.	16aa\JJ	.	.	.	.	.	.	.	.	.	.	.	.
.	.	.	32a/JJk	.	.	.	.	.	.	.	.	.	.	.	.	.	.
4r	.	.	16.g/LL	.	16.gg\LL	.	.	.	.	.	.	.	.	.	.	.	.
.	.	.	32b/K	.	32bb\K	.	.	.	.	.	.	.	.	.	.	.	.
.	.	.	16.e/	.	16.ee\	.	.	.	.	.	.	.	.	.	.	.	.
.	.	.	32g/JJk	.	32ccc#X\JJk	.	.	.	.	.	.	.	.	.	.	.	.
!	!	!	!LO:LB:g=original	!	!	!	!	!	!	!	!	!	!	!	!	!	!
=32	=32	=32	=32	=32	=32	=32	=32	=32	=32	=32	=32	=32	=32	=32	=32	=32	=32
8D\	.	.	8.f#/L	.	8.ddd\L	.	2ryy	4d\	-bis	.	.	.	.	2ryy	2ryy	2ryy	2ryy
8r	.	.	.	.	.	.	.	.	.	.	.	.	.	.	.	.	.
.	.	.	16a/Jk	f	16aa\Jk	.	.	.	.	.	.	.	.	.	.	.	.
.	.	.	.	.	8qbb/	.	.	.	.	.	.	.	.	.	.	.	.
16d\LL	.	f	24a/LL	.	24aa\LL	.	.	4r	.	.	.	.	.	.	.	.	.
.	.	.	24g/	.	24gg\	.	.	.	.	.	.	.	.	.	.	.	.
16d\	.	.	.	.	.	.	.	.	.	.	.	.	.	.	.	.	.
.	.	.	24f#/JJ	.	24ff#\JJ	.	.	.	.	.	.	.	.	.	.	.	.
16d\	.	.	24e/LL	.	24ee\LL	.	.	.	.	.	.	.	.	.	.	.	.
.	.	.	24d/	.	24dd\	.	.	.	.	.	.	.	.	.	.	.	.
16d\JJ	.	.	.	.	.	.	.	.	.	.	.	.	.	.	.	.	.
!	!	!	!LO:TX:b:t=♮	!	!	!	!	!	!	!	!	!	!	!	!	!	!
!	!	!	!LO:TX:a:t=♮	!	!	!	!	!	!	!	!	!	!	!	!	!	!
.	.	.	24cn/JJ	.	24cc\JJ	.	.	.	.	.	.	.	.	.	.	.	.
=33	=33	=33	=33	=33	=33	=33	=33	=33	=33	=33	=33	=33	=33	=33	=33	=33	=33
*tremolo	*	*	*	*	*	*	*	*	*	*	*	*	*	*	*	*	*
16G\LL	.	.	8B/	.	8b|\L	.	2ryy	0r	.	0r	.	1r	.	2ryy	2ryy	2ryy	2ryy
16G\	.	.	.	.	.	.	.	.	.	.	.	.	.	.	.	.	.
16G\	.	.	(32b\LLL	.	(32gg\LL	.	.	.	.	.	.	.	.	.	.	.	.
.	.	.	32a\	.	32ff#\	.	.	.	.	.	.	.	.	.	.	.	.
16G\JJ	.	.	32b\	.	32gg\	.	.	.	.	.	.	.	.	.	.	.	.
.	.	.	32cc\JJJ)	.	32aa\JJJ)	.	.	.	.	.	.	.	.	.	.	.	.
16G\LL	.	.	16b\LL	.	16gg\LL	.	.	.	.	.	.	.	.	.	.	.	.
16d\	.	.	16dd\	.	16dd\	.	.	.	.	.	.	.	.	.	.	.	.
16B\	.	.	16b\	.	16b\	.	.	.	.	.	.	.	.	.	.	.	.
16G\JJ	.	.	16g\JJ	.	16g\JJ	.	.	.	.	.	.	.	.	.	.	.	.
=34	=34	=34	=34	=34	=34	=34	=34	=34	=34	=34	=34	=34	=34	=34	=34	=34	=34
!	!	!	!	!	!LO:TX:t=P:problem=mixed beam	!	!	!	!	!	!	!	!	!	!	!	!
16D\LL	.	.	8d/L	.	8d/L	.	2ryy	.	.	.	.	.	.	2ryy	2ryy	2ryy	2ryy
16D\	.	.	.	.	.	.	.	.	.	.	.	.	.	.	.	.	.
16D\	.	.	8a/J	.	8aa\J	.	.	.	.	.	.	.	.	.	.	.	.
16D\JJ	.	.	.	.	.	.	.	.	.	.	.	.	.	.	.	.	.
16d\LL	.	.	24a/LL	.	24aa\LL	.	.	.	.	.	.	.	.	.	.	.	.
.	.	.	24g/	.	24gg\	.	.	.	.	.	.	.	.	.	.	.	.
16d\	.	.	.	.	.	.	.	.	.	.	.	.	.	.	.	.	.
.	.	.	24f#/JJ	.	24ff#\JJ	.	.	.	.	.	.	.	.	.	.	.	.
16d\	.	.	24e/LL	.	24ee\LL	.	.	.	.	.	.	.	.	.	.	.	.
.	.	.	24d/	.	24dd\	.	.	.	.	.	.	.	.	.	.	.	.
16d\JJ	.	.	.	.	.	.	.	.	.	.	.	.	.	.	.	.	.
.	.	.	24c/JJ	.	24ccn\JJ	.	.	.	.	.	.	.	.	.	.	.	.
!	!	!	!	!	!LO:LB:g=original	!	!	!	!	!	!	!	!	!	!	!	!
=35	=35	=35	=35	=35	=35	=35	=35	=35	=35	=35	=35	=35	=35	=35	=35	=35	=35
16G\LL	.	.	8B/	.	8b|\L	.	2ryy	.	.	.	.	2r	.	2ryy	2ryy	2ryy	2ryy
16G\	.	.	.	.	.	.	.	.	.	.	.	.	.	.	.	.	.
16G\	.	.	(32b\LLL	.	(32gg\LL	.	.	.	.	.	.	.	.	.	.	.	.
.	.	.	32a\	.	32ff#\	.	.	.	.	.	.	.	.	.	.	.	.
16G\JJ	.	.	32b\	.	32gg\	.	.	.	.	.	.	.	.	.	.	.	.
.	.	.	32cc\JJJ)	.	32aa\JJJ)	.	.	.	.	.	.	.	.	.	.	.	.
*Xtremolo	*	*	*	*	*	*	*	*	*	*	*	*	*	*	*	*	*
8G\L	.	.	24b\LL	.	24gg\LL	.	.	.	.	.	.	.	.	.	.	.	.
.	.	.	24dd\	.	24ff#\	.	.	.	.	.	.	.	.	.	.	.	.
.	.	.	24cc\JJ	.	24ee\JJ	.	.	.	.	.	.	.	.	.	.	.	.
8G\J	.	.	24b\LL	.	24dd\LL	.	.	.	.	.	.	.	.	.	.	.	.
.	.	.	24a\	.	24cc\	.	.	.	.	.	.	.	.	.	.	.	.
.	.	.	24g\JJ	.	24b\JJ	.	.	.	.	.	.	.	.	.	.	.	.
=36	=36	=36	=36	=36	=36	=36	=36	=36	=36	=36	=36	=36	=36	=36	=36	=36	=36
8d'\L	.	.	8g/L	.	8bt\L	.	2ryy	.	.	.	.	4r	.	2ryy	2ryy	2ryy	2ryy
16A'\L	.	.	8f#/J	.	8a\J	.	.	.	.	.	.	.	.	.	.	.	.
16F#'\JJ	.	.	.	.	.	.	.	.	.	.	.	.	.	.	.	.	.
8D|\	.	.	8r	.	8r	.	.	.	.	.	.	8r	.	.	.	.	.
8r	.	.	8d/	p	8dd\	p	.	.	.	.	.	8dd\	Ma-	.	.	.	.
!LO:LB:g=original	!	!	!LO:LB:g=original	!	!	!	!	!LO:LB:g=original	!	!	!	!	!	!	!	!	!
=37	=37	=37	=37	=37	=37	=37	=37	=37	=37	=37	=37	=37	=37	=37	=37	=37	=37
8G\	.	.	8b\L	.	8gg\L	.	2ryy	4r	.	2r	.	8gg\	-ter	2ryy	2ryy	2ryy	2ryy
8r	.	.	8b\J	.	8gg\J	.	.	.	.	.	.	8g\	in-	.	.	.	.
8G\	.	.	8b\L	.	8gg\L	.	.	16r	.	.	.	8g\	-vi-	.	.	.	.
.	.	.	.	.	.	.	.	16B\	in-	.	.	.	.	.	.	.	.
8r	.	.	16dd\L	.	(16ddd\L	.	.	16B\	-vi-	.	.	16dd\LL	-o-	.	.	.	.
.	.	.	16gg\JJ	.	16bb\JJ)	.	.	16d\	-o-	.	.	16b\JJ	.	.	.	.	.
!	!	!	!	!	!	!	!	!	!	!LO:LB:g=original	!	!	!	!	!	!	!
=38	=38	=38	=38	=38	=38	=38	=38	=38	=38	=38	=38	=38	=38	=38	=38	=38	=38
8F#\L	6	.	8.ff#\L	.	8.aa\L	f	2ryy	4d\	-la-	8.f#\L	O-	8.a\L	-la-	2ryy	2ryy	2ryy	2ryy
8D\	.	.	.	.	.	.	.	.	.	.	.	.	.	.	.	.	.
.	.	.	32gg\LL	f	32bb\LL	.	.	.	.	32g\LL	.	32b\LL	.	.	.	.	.
.	.	.	32aa\JJJ	.	32ccc\JJJ	.	.	.	.	32a\JJJ	.	32cc\JJJ	.	.	.	.	.
!	!	!	!LO:TX:t=P:problem=mixed beam	!	!	!	!	!	!	!	!	!	!	!	!	!	!
8G\J	.	.	8gg\L	.	8bb\L	p	.	8d\	-ta	8g\	-ra	8b\	-ta	.	.	.	.
!	!	!	!	!LO:DY:t=pia&colon;	!	!	!	!	!	!	!	!	!	!	!	!	!
8r	.	.	16g/L	p	16ee\L	.	.	8r	.	8r	.	16ee\LL	in-	.	.	.	.
.	.	.	16e/JJ	.	16cccn\JJ	.	.	.	.	.	.	16cc\JJ	.	.	.	.	.
!	!	!	!	!	!	!	!	!	!	!	!	!LO:LB:g=original	!	!	!	!	!
=39	=39	=39	=39	=39	=39	=39	=39	=39	=39	=39	=39	=39	=39	=39	=39	=39	=39
.	.	.	.	.	.	.	.	.	.	.	.	8qqcc/	.	.	.	.	.
8r	.	.	8d|/L	.	8bb\L	.	2ryy	8d\L	o-	1r	.	8b\	-te-	2ryy	2ryy	2ryy	2ryy
8C/L	6	.	(16e/L	.	(16ccc\L	.	.	16e\L	.	.	.	16cc\LL	-me-	.	.	.	.
.	.	.	16c/JJ)	.	16aa\JJ)	.	.	16c\JJ	.	.	.	16a\JJ	.	.	.	.	.
.	.	.	.	.	8qqgg/	.	.	.	.	.	.	8qqa/	.	.	.	.	.
8D/	4	.	8B|/L	.	8gg\L	.	.	8B\	-ra	.	.	8g\	-ra-	.	.	.	.
8DD/J	3	.	(16c/L	.	(16aa\L	.	.	16c\LL	pro	.	.	16a\LL	.	.	.	.	.
.	.	.	16A/JJ)	.	16ff#\JJ)	.	.	16A\JJ	.	.	.	16f#\JJ	.	.	.	.	.
=40	=40	=40	=40	=40	=40	=40	=40	=40	=40	=40	=40	=40	=40	=40	=40	=40	=40
.	.	.	.	.	8qqff#/	f	.	.	.	.	.	.	.	.	.	.	.
8GG/L	.	.	8B/L	.	8gg\L	.	2ryy	8B\L	no-	.	.	4g\	ta	2ryy	2ryy	2ryy	2ryy
8D\	.	.	(32d/LL	f	(32dd\LL	.	.	8B\J	-bis	.	.	.	.	.	.	.	.
.	.	.	32c/	.	32cc\	.	.	.	.	.	.	.	.	.	.	.	.
.	.	.	32B/	.	32b\	.	.	.	.	.	.	.	.	.	.	.	.
.	.	.	32A/JJJ)	.	32a\JJJ)	.	.	.	.	.	.	.	.	.	.	.	.
!	!	!	!	!	!LO:LB:g=original	!	!	!	!	!	!	!	!	!	!	!	!
!	!	!	!	!	!LO:TX:t=P:problem=mixed beam	!	!	!	!	!	!	!	!	!	!	!	!
8G/J	.	.	8G/L	.	8g/L	.	.	4r	.	.	.	8r	.	.	.	.	.
!	!	!	!	!	!	!LO:DY:t=pia&colon;	!	!	!	!	!	!	!	!	!	!	!
8r	.	.	8d/J	p	8dd\J	p	.	.	.	.	.	8dd\	Ma-	.	.	.	.
=41	=41	=41	=41	=41	=41	=41	=41	=41	=41	=41	=41	=41	=41	=41	=41	=41	=41
8G\	.	.	8b\L	.	8gg\L	.	2ryy	4r	.	4r	.	8gg\	-ter	2ryy	2ryy	2ryy	2ryy
*	*	*	*	*	*	*	*	*	*	*	*	*	*ij	*	*	*	*
8r	.	.	8b\J	.	8gg\J	.	.	.	.	.	.	8g\	Ma-	.	.	.	.
8G\	.	.	8b\L	.	(16gg\LL	.	.	16r	.	8r	.	8g\	-ter	.	.	.	.
*	*	*	*	*	*	*	*	*	*	*	*	*	*Xij	*	*	*	*
.	.	.	.	.	16bb\)	.	.	16B\	Ma-	.	.	.	.	.	.	.	.
8r	.	.	16dd\L	.	(16ddd\	.	.	16B\	-ter	8g\	A-	16dd\LL	A-	.	.	.	.
.	.	.	16gg\JJ	.	16bb\JJ)	.	.	16d\	A-	.	.	16b\JJ	.	.	.	.	.
!	!	!	!	!	!	!	!	!LO:LB:g=original	!	!	!	!	!	!	!	!	!
=42	=42	=42	=42	=42	=42	=42	=42	=42	=42	=42	=42	=42	=42	=42	=42	=42	=42
8F#\L	6	.	8.ff#\L	.	8.aaT\L	.	2ryy	8.d\	-ma-	8.f#\	-ma-	8.a\	-ma-	2ryy	2ryy	2ryy	2ryy
8D\	.	.	.	.	.	.	.	.	.	.	.	.	.	.	.	.	.
.	.	.	32gg\LL	.	32bb\LL	.	.	16d\	-bi-	32g\LLL	-bi-	32b\LLL	-bi-	.	.	.	.
.	.	.	32aa\JJJ	.	32ccc\JJJ	.	.	.	.	32a\JJJ	.	32cc\JJJ	.	.	.	.	.
!	!	!	!LO:TX:t=P:problem=mixed beam	!	!	!	!	!	!	!	!	!	!	!	!	!	!
8G\J	.	.	8gg\L	.	8bb\L	.	.	8d\	-lis	8g\	-lis	8b\	-lis	.	.	.	.
8r	.	.	16g/L	.	16ee\L	.	.	8r	.	8r	.	16ee\LL	et	.	.	.	.
.	.	.	16e/JJ	.	16ccc\JJ	.	.	.	.	.	.	16cc\JJ	.	.	.	.	.
!	!	!	!LO:LB:g=original	!	!	!	!	!	!	!	!	!	!	!	!	!	!
=43	=43	=43	=43	=43	=43	=43	=43	=43	=43	=43	=43	=43	=43	=43	=43	=43	=43
8r	.	.	8d|/L	.	8bb|\L	.	2ryy	8d\L	o-	1r	.	8b\	ad-	2ryy	2ryy	2ryy	2ryy
8C/L	6	.	(16e/L	.	(16ccc\L	.	.	16e\L	.	.	.	16cc\LL	-mi-	.	.	.	.
.	.	.	16c/JJ)	.	16aa\JJ)	.	.	16c\JJ	.	.	.	16a\JJ	.	.	.	.	.
.	.	.	.	.	8qqgg/	.	.	.	.	.	.	.	.	.	.	.	.
8D/	4	.	8B|/L	.	8gg\L	.	.	8B\	-ra	.	.	8g\	-ra-	.	.	.	.
8DD/J	3	.	(16c/L	.	16aa\L	.	.	16c\LL	pro	.	.	16a\LL	-bi-	.	.	.	.
.	.	.	16A/JJ)	.	16ff#\JJ	.	.	16A\JJ	.	.	.	16f#\JJ	.	.	.	.	.
=44	=44	=44	=44	=44	=44	=44	=44	=44	=44	=44	=44	=44	=44	=44	=44	=44	=44
!LO:TX:t=P:problem=mixed beam	!	!	!	!	!LO:TX:t=P:problem=mixed beam	!	!	!	!	!	!	!	!	!	!	!	!
.	.	.	.	.	.	.	.	.	.	.	.	8qqf#/	.	.	.	.	.
8GG/L	.	.	8B/L	.	8gg\L	f	2ryy	8B\	no-	.	.	4g\	-lis	2ryy	2ryy	2ryy	2ryy
8D\	.	.	(32d/LL	f	32d/LL	.	.	8B\	-bis	.	.	.	.	.	.	.	.
.	.	.	32c/	.	32c/	.	.	.	.	.	.	.	.	.	.	.	.
.	.	.	32B/	.	32B/	.	.	.	.	.	.	.	.	.	.	.	.
.	.	.	32A/JJJ)	.	32A/JJJ	.	.	.	.	.	.	.	.	.	.	.	.
!	!	!	!LO:TX:t=P:problem=mixed beam	!	!LO:TX:t=P:problem=mixed beam	!	!	!	!	!	!	!	!	!	!	!	!
8G/J	.	.	8G/L	.	8G/L	.	.	4r	.	.	.	8r	.	.	.	.	.
8r	.	.	8b\J	.	8dd\J	p	.	.	.	.	.	[8dd\	Ma-	.	.	.	.
!LO:LB:g=original	!	!	!	!	!	!	!	!	!	!	!	!LO:LB:g=original	!	!	!	!	!
=45	=45	=45	=45	=45	=45	=45	=45	=45	=45	=45	=45	=45	=45	=45	=45	=45	=45
8G#X\L	n7	.	8.b\L	p	8.dd\L	.	2ryy	8B\	Ma-	2r	.	8dd\]	.	2ryy	2ryy	2ryy	2ryy
8G#\	_	.	.	.	.	.	.	8d\	-ter	.	.	8ffn\	-ter	.	.	.	.
.	.	.	16dd\Jk	.	16ffn\Jk	.	.	.	.	.	.	.	.	.	.	.	.
8G#\	6	.	(16dd\LL	.	(16ff\LL	.	.	16d\LL	Cre-	.	.	16ff\LL	Cre-	.	.	.	.
.	.	.	16cc\)	.	16ee\)	.	.	16c\JJ	.	.	.	16ee\JJ	.	.	.	.	.
8G#\J	5	.	(16g#X\	.	16b|\	.	.	16G#X\LL	-a-	.	.	16b\LL	-a-	.	.	.	.
.	.	.	16a\JJ)	.	16dd|\JJ	.	.	16B\JJ	.	.	.	16dd\JJ	.	.	.	.	.
!	!	!	!	!	!LO:LB:g=original	!	!	!	!	!	!	!	!	!	!	!	!
=46	=46	=46	=46	=46	=46	=46	=46	=46	=46	=46	=46	=46	=46	=46	=46	=46	=46
!LO:TX:t=P:problem=mixed beam	!	!	!	!	!	!	!	!	!	!	!	!	!	!	!	!	!
8A\L	.	.	16b/LL	.	(8dd\L	.	2ryy	16B\LL	-to-	4r	.	16dd\LL	-to-	2ryy	2ryy	2ryy	2ryy
.	.	.	16a/JJ	.	.	.	.	16A\JJ	.	.	.	16cc\JJ	.	.	.	.	.
8E\	n	.	(32a/LLL	.	8cc\J)	.	.	8A\	-ris	.	.	8cc\	-ris	.	.	.	.
.	.	.	32g#X/	.	.	.	.	.	.	.	.	.	.	.	.	.	.
.	.	.	32a/	.	.	.	.	.	.	.	.	.	.	.	.	.	.
.	.	.	32b/JJJ)	.	.	.	.	.	.	.	.	.	.	.	.	.	.
8AA/J	n	.	8a/L	.	(32cc\LLL	.	.	4r	.	8r	.	8r	.	.	.	.	.
.	.	.	.	.	32b\	.	.	.	.	.	.	.	.	.	.	.	.
.	.	.	.	.	32cc\	.	.	.	.	.	.	.	.	.	.	.	.
.	.	.	.	.	32dd\JJJ)	.	.	.	.	.	.	.	.	.	.	.	.
8r	.	.	8a/J	.	16cc|\LL	.	.	.	.	8a\	Ma-	[8cc\	Ma-	.	.	.	.
.	.	.	.	.	16cc|\JJ	.	.	.	.	.	.	.	.	.	.	.	.
=47	=47	=47	=47	=47	=47	=47	=47	=47	=47	=47	=47	=47	=47	=47	=47	=47	=47
8F#\L	5	.	8.a\L	.	8.cc\L	.	2ryy	1r	.	8.a\	.	8.cc\]	.	2ryy	2ryy	2ryy	2ryy
8F#\	.	.	.	.	.	.	.	.	.	.	.	.	.	.	.	.	.
.	.	.	16cc\Jk	.	16ee\Jk	.	.	.	.	16cc\	-ter	16ee\	ter	.	.	.	.
8F#\	6	.	(16cc\LL	.	(16ee\LL	.	.	.	.	16cc\LL	Sal-	16ee\LL	Sal-	.	.	.	.
.	.	.	16a\	.	16dd\	.	.	.	.	16b\JJ	.	16dd\JJ	.	.	.	.	.
8F#\J	5	.	16f#\	.	16a\	.	.	.	.	16f#\LL	-va-	16a\LL	-va-	.	.	.	.
.	.	.	16a\JJ)	.	16cc\JJ)	.	.	.	.	16a\JJ	.	16cc\JJ	.	.	.	.	.
!	!	!	!LO:LB:g=original	!	!	!	!	!	!	!LO:LB:g=original	!	!	!	!	!	!	!
=48	=48	=48	=48	=48	=48	=48	=48	=48	=48	=48	=48	=48	=48	=48	=48	=48	=48
8G\L	.	.	16a/LL	.	16cc\LL	.	2ryy	.	.	16a\LL	-to-	16cc\LL	-to-	2ryy	2ryy	2ryy	2ryy
.	.	.	16g/JJ	.	16b\JJ	.	.	.	.	16g\JJ	.	16b\JJ	.	.	.	.	.
8D\	.	.	(32g/LLL	.	(32b\LLL	.	.	.	.	8g\	-ris	8b\	-ris	.	.	.	.
.	.	.	32f#/	.	32a\	.	.	.	.	.	.	.	.	.	.	.	.
.	.	.	32g/	.	32b\	.	.	.	.	.	.	.	.	.	.	.	.
.	.	.	32a/JJJ)	.	32cc\JJJ)	.	.	.	.	.	.	.	.	.	.	.	.
8GG\J	.	.	8g/	.	8b\	.	.	.	.	4r	.	8r	.	.	.	.	.
8r	.	.	8r	.	8r	.	.	.	.	.	.	8dd\	o-	.	.	.	.
!	!	!	!	!	!	!	!	!LO:LB:g=original	!	!	!	!	!	!	!	!	!
=49	=49	=49	=49	=49	=49	=49	=49	=49	=49	=49	=49	=49	=49	=49	=49	=49	=49
8r	.	.	8r	.	8r	.	2ryy	8r	.	8r	.	8gg\	-ra	2ryy	2ryy	2ryy	2ryy
!LO:TX:t=P:problem=mixed beam	!	!	!	!	!	!	!	!	!	!	!	!	!	!	!	!	!
8G\L	.	.	(32b\LLL	.	(32gg\LLL	.	.	8B\	o-	8g\	O-	8r	.	.	.	.	.
.	.	.	32a\	.	32ff#\	.	.	.	.	.	.	.	.	.	.	.	.
.	.	.	32b\	.	32gg\	.	.	.	.	.	.	.	.	.	.	.	.
.	.	.	32cc\JJJ)	.	32aa\JJJ)	.	.	.	.	.	.	.	.	.	.	.	.
8GG/J	.	.	8b\	.	8gg\	.	.	8B\	-ra	8g\	-ra	8r	.	.	.	.	.
8r	.	.	8r	.	8r	.	.	8r	.	8r	.	8dd\	o-	.	.	.	.
=50	=50	=50	=50	=50	=50	=50	=50	=50	=50	=50	=50	=50	=50	=50	=50	=50	=50
8r	.	.	8r	.	8r	.	2ryy	8r	.	8r	.	8aa\	-ra	2ryy	2ryy	2ryy	2ryy
*	*	*	*	*	*	*	*	*	*ij	*	*	*	*	*	*	*	*
16F#\LL	.	.	(32ff#\LLL	.	32aa\LLL	.	.	8c\	o-	8f#\	O-	8r	.	.	.	.	.
.	.	.	32ee\	.	32gg#X\	.	.	.	.	.	.	.	.	.	.	.	.
16A\JJ	.	.	32ff#\	.	32aa\	.	.	.	.	.	.	.	.	.	.	.	.
.	.	.	32gg\JJJ)	.	32bb\JJJ	.	.	.	.	.	.	.	.	.	.	.	.
8D\	.	.	8ff#\	.	8aa\L	.	.	8c\	-ra	8f#\	-ra	8r	.	.	.	.	.
*	*	*	*	*	*	*	*	*	*Xij	*	*	*	*	*	*	*	*
!	!	!	!	!	!	!	!	!	!	!	!	!LO:TX:b:t=VS&colon;	!	!	!	!	!
8r	.	.	8r	.	24ccc\L	.	.	8r	.	8r	.	8ff#\	o-	.	.	.	.
.	.	.	.	.	24aa\	.	.	.	.	.	.	.	.	.	.	.	.
.	.	.	.	.	24ff#\JJ	.	.	.	.	.	.	.	.	.	.	.	.
!	!	!	!	!	!LO:LB:g=original	!	!	!	!	!	!	!LO:PB:g=original	!	!	!	!	!
=51	=51	=51	=51	=51	=51	=51	=51	=51	=51	=51	=51	=51	=51	=51	=51	=51	=51
8r	.	.	8b\L	.	8gg\L	.	2ryy	8r	.	1r	.	8gg\	-ra	2ryy	2ryy	2ryy	2ryy
!	!	!	!	!	!	!	!	!LO:TUP:a:problem=klamra łukowa, kropka zamiast numeru	!	!	!	!	!	!	!	!	!
8C/L	6	.	24cc\L	.	24ee\L	.	.	24c\LL	pro	.	.	24ee\LL	pro	.	.	.	.
.	.	.	24b\	.	24dd\	.	.	24B\	.	.	.	24dd\	.	.	.	.	.
.	.	.	24a\JJ	.	24cc\JJ	.	.	24A\JJ	.	.	.	24cc\JJ	.	.	.	.	.
8D/	6 4	.	8g/L	.	8b~\L	.	.	8G/	no-	.	.	8b\	no-	.	.	.	.
8DD/J	5 #	.	8d/J	.	8a~\J	.	.	8F#/	-bis	.	.	8a\	-bis	.	.	.	.
=52	=52	=52	=52	=52	=52	=52	=52	=52	=52	=52	=52	=52	=52	=52	=52	=52	=52
4GG/	.	.	16G/LL	.	16g'\LL	.	2ryy	16G/LL	o-	.	.	16g\LL	o-	2ryy	2ryy	2ryy	2ryy
.	.	.	16A/	.	16a'\	.	.	16F#/	.	.	.	16a\	.	.	.	.	.
.	.	.	16B/	.	16b'\	.	.	16G/	.	.	.	16b\	.	.	.	.	.
.	.	.	16c/JJ	.	16cc'\JJ	.	.	16A/JJ	.	.	.	16cc\JJ	.	.	.	.	.
4r	.	.	16d/LL	.	16dd'\LL	.	.	16B\LL	.	.	.	16dd\LL	.	.	.	.	.
.	.	.	16e/	.	16ee'\	.	.	16c\JJ	.	.	.	16ee\	.	.	.	.	.
.	.	.	16f#/	.	16ff#'\	.	.	16A\LL	-ra	.	.	16ff#\	.	.	.	.	.
.	.	.	16g/JJ	.	16gg'\JJ	.	.	16B\JJ	.	.	.	16gg\JJ	.	.	.	.	.
!LO:LB:g=original	!	!	!LO:LB:g=original	!	!	!	!	!	!	!	!	!	!	!	!	!	!
=53	=53	=53	=53	=53	=53	=53	=53	=53	=53	=53	=53	=53	=53	=53	=53	=53	=53
*	*	*	*	*	*	*	*	*	*	*	*	*2\right	*	*	*	*	*
2GG/	.	.	24d/LL	.	24dd\LL	.	2ryy	8r	.	8r	.	2gg\	-ra	2ryy	2ryy	2ryy	2ryy
.	.	.	24B/	.	24b\	.	.	.	.	.	.	.	.	.	.	.	.
.	.	.	24G/JJ	.	24g\JJ	.	.	.	.	.	.	.	.	.	.	.	.
.	.	.	24g/LL	.	24gg\LL	.	.	8B\	o-	8d\	O-	.	.	.	.	.	.
.	.	.	24d/	.	24dd\	.	.	.	.	.	.	.	.	.	.	.	.
.	.	.	24B/JJ	.	24b\JJ	.	.	.	.	.	.	.	.	.	.	.	.
.	.	.	24d/LL	.	24dd\LL	.	.	8B\	-ra	8d\	-ra	.	.	.	.	.	.
.	.	.	24B/	.	24b\	.	.	.	.	.	.	.	.	.	.	.	.
.	.	.	24G/JJ	.	24g\JJ	.	.	.	.	.	.	.	.	.	.	.	.
*	*	*	*	*	*	*	*	*	*ij	*	*	*	*	*	*	*	*
.	.	.	24g/LL	.	24gg\LL	.	.	8B\	o-	8d\	pro	.	.	.	.	.	.
.	.	.	24d/	.	24dd\	.	.	.	.	.	.	.	.	.	.	.	.
.	.	.	24B/JJ	.	24b\JJ	.	.	.	.	.	.	.	.	.	.	.	.
=54	=54	=54	=54	=54	=54	=54	=54	=54	=54	=54	=54	=54	=54	=54	=54	=54	=54
8GG/L	.	.	8g/L	.	8gg\L	.	2ryy	8B\	-ra	8d\L	no-	8gg\	pro	2ryy	2ryy	2ryy	2ryy
*	*	*	*	*	*	*	*	*	*Xij	*	*	*	*	*	*	*	*
!	!	!	!	!	!	!	!	!LO:TUP:a:problem=klamra łukowa, kropka zamiast numeru	!	!	!	!LO:TUP:a:problem=klamra łukowa, kropka zamiast numeru	!	!	!	!	!
8C/	6	.	24cc/L	.	24ee\L	.	.	24c\LL	pro	8e\J	.	24ee\LL	no-	.	.	.	.
.	.	.	24b/	.	24dd\	.	.	24B\	.	.	.	24dd\	.	.	.	.	.
.	.	.	24a/JJ	.	24cc\JJ	.	.	24A\JJ	.	.	.	24cc\JJ	.	.	.	.	.
!	!	!	!	!	!	!	!	!LO:LB:g=original	!	!	!	!	!	!	!	!	!
8D/	6 4	.	8g/L	.	8b/L	.	.	8G/L	no-	4d\	.	8b\L	.	.	.	.	.
8D/J	5 3	.	8f#/J	.	8aT/J	.	.	8F#/J	.	.	.	8a\J	.	.	.	.	.
=55	=55	=55	=55	=55	=55	=55	=55	=55	=55	=55	=55	=55	=55	=55	=55	=55	=55
!LO:TX:t=P:problem=mixed beam	!	!	!	!	!	!	!	!	!	!	!	!	!	!	!	!	!
.	.	.	.	.	.	.	.	.	.	.	.	8qqa/	.	.	.	.	.
8GG/L	.	.	8g/L	.	8g/L	.	2ryy	4G/	-bis.	4d\	-bis.	4g\	-bis	2ryy	2ryy	2ryy	2ryy
8G\	.	.	(32d/LL	.	(32d/LL	.	.	.	.	.	.	.	.	.	.	.	.
.	.	.	32c/	.	32c/	.	.	.	.	.	.	.	.	.	.	.	.
.	.	.	32B/	.	32B/	.	.	.	.	.	.	.	.	.	.	.	.
.	.	.	32A/JJJ)	.	32A/JJJ)	.	.	.	.	.	.	.	.	.	.	.	.
!	!	!	!	!	!LO:TX:t=P:problem=mixed beam	!	!	!	!	!	!	!	!	!	!	!	!
8GG/J	.	.	8G/L	.	8G/L	.	.	4r	.	4r	.	4r	.	.	.	.	.
8r	.	.	24A/L	.	16dd\L	.	.	.	.	.	.	.	.	.	.	.	.
.	.	.	24d/	.	.	.	.	.	.	.	.	.	.	.	.	.	.
.	.	.	.	.	16ff#/JJ	.	.	.	.	.	.	.	.	.	.	.	.
.	.	.	24f#/JJ	.	.	.	.	.	.	.	.	.	.	.	.	.	.
!	!	!	!	!	!LO:LB:g=original	!	!	!	!	!	!	!	!	!	!	!	!
=56	=56	=56	=56	=56	=56	=56	=56	=56	=56	=56	=56	=56	=56	=56	=56	=56	=56
16d\LL	.	f	8a/L	.	8aa|\L	.	2ryy	0r	.	0r	.	0r	.	2ryy	2ryy	2ryy	2ryy
16d\	.	.	.	.	.	.	.	.	.	.	.	.	.	.	.	.	.
16d\	.	.	(32a/LL	.	(32aa\LL	.	.	.	.	.	.	.	.	.	.	.	.
.	.	.	32g/	.	32gg\	.	.	.	.	.	.	.	.	.	.	.	.
16d\JJ	.	.	32f#/	.	32ff#\	.	.	.	.	.	.	.	.	.	.	.	.
.	.	.	32g/JJJ)	.	32gg\JJJ)	.	.	.	.	.	.	.	.	.	.	.	.
*tremolo	*	*	*	*	*	*	*	*	*	*	*	*	*	*	*	*	*
16d\LL	.	.	24a/LL	.	24aa\LL	.	.	.	.	.	.	.	.	.	.	.	.
.	.	.	24g/	.	24gg\	.	.	.	.	.	.	.	.	.	.	.	.
16d\	.	.	.	.	.	.	.	.	.	.	.	.	.	.	.	.	.
.	.	.	24f#/JJ	.	24ff#\JJ	.	.	.	.	.	.	.	.	.	.	.	.
16d\	.	.	24e/LL	.	24ee\LL	.	.	.	.	.	.	.	.	.	.	.	.
.	.	.	24d/	.	24dd\	.	.	.	.	.	.	.	.	.	.	.	.
16d\JJ	.	.	.	.	.	.	.	.	.	.	.	.	.	.	.	.	.
.	.	.	24c/JJ	.	24ccn\JJ	.	.	.	.	.	.	.	.	.	.	.	.
!	!	!	!LO:LB:g=original	!	!	!	!	!	!	!	!	!	!	!	!	!	!
=57	=57	=57	=57	=57	=57	=57	=57	=57	=57	=57	=57	=57	=57	=57	=57	=57	=57
16G\LL	.	.	8B/	.	8b\L	.	2ryy	.	.	.	.	.	.	2ryy	2ryy	2ryy	2ryy
16G\	.	.	.	.	.	.	.	.	.	.	.	.	.	.	.	.	.
16G\	.	.	(32b\LLL	.	(32gg\LL	.	.	.	.	.	.	.	.	.	.	.	.
.	.	.	32a\	.	32ff#\	.	.	.	.	.	.	.	.	.	.	.	.
16G\JJ	.	.	32b\	.	32gg\	.	.	.	.	.	.	.	.	.	.	.	.
.	.	.	32cc\JJJ)	.	32aa\JJJ)	.	.	.	.	.	.	.	.	.	.	.	.
16G\LL	.	.	16b\LL	.	16gg\LL	.	.	.	.	.	.	.	.	.	.	.	.
16G\	.	.	16dd\	.	16ddd\	.	.	.	.	.	.	.	.	.	.	.	.
16G\	.	.	16b\	.	16bb\	.	.	.	.	.	.	.	.	.	.	.	.
16G\JJ	.	.	16g\JJ	.	16gg\JJ	.	.	.	.	.	.	.	.	.	.	.	.
=58	=58	=58	=58	=58	=58	=58	=58	=58	=58	=58	=58	=58	=58	=58	=58	=58	=58
16d\LL	.	.	8f#/L	.	8dd\L	.	2ryy	.	.	.	.	.	.	2ryy	2ryy	2ryy	2ryy
16d\	.	.	.	.	.	.	.	.	.	.	.	.	.	.	.	.	.
16d\	.	.	(32a/LL	.	(32aa\LL	.	.	.	.	.	.	.	.	.	.	.	.
.	.	.	32g/	.	32gg\	.	.	.	.	.	.	.	.	.	.	.	.
16d\JJ	.	.	32f#/	.	32ff#\	.	.	.	.	.	.	.	.	.	.	.	.
.	.	.	32g/JJJ)	.	32gg\JJJ)	.	.	.	.	.	.	.	.	.	.	.	.
16d\LL	.	.	24a/LL	.	24aa\LL	.	.	.	.	.	.	.	.	.	.	.	.
.	.	.	24g/	.	24gg\	.	.	.	.	.	.	.	.	.	.	.	.
16d\	.	.	.	.	.	.	.	.	.	.	.	.	.	.	.	.	.
.	.	.	24f#/JJ	.	24ff#\JJ	.	.	.	.	.	.	.	.	.	.	.	.
16d\	.	.	24e/LL	.	24ee\LL	.	.	.	.	.	.	.	.	.	.	.	.
.	.	.	24d/	.	24dd\	.	.	.	.	.	.	.	.	.	.	.	.
16d\JJ	.	.	.	.	.	.	.	.	.	.	.	.	.	.	.	.	.
.	.	.	24c/JJ	.	24cc\JJ	.	.	.	.	.	.	.	.	.	.	.	.
=59	=59	=59	=59	=59	=59	=59	=59	=59	=59	=59	=59	=59	=59	=59	=59	=59	=59
16G\LL	.	.	8B/	.	8b\L	.	2ryy	.	.	.	.	.	.	2ryy	2ryy	2ryy	2ryy
16G\	.	.	.	.	.	.	.	.	.	.	.	.	.	.	.	.	.
16G\	.	.	(32b\LLL	.	(32gg\LL	.	.	.	.	.	.	.	.	.	.	.	.
.	.	.	32a\	.	32ff#\	.	.	.	.	.	.	.	.	.	.	.	.
16G\JJ	.	.	32b\	.	32gg\	.	.	.	.	.	.	.	.	.	.	.	.
.	.	.	32cc\JJJ)	.	32aa\JJJ)	.	.	.	.	.	.	.	.	.	.	.	.
*Xtremolo	*	*	*	*	*	*	*	*	*	*	*	*	*	*	*	*	*
16G|\LL	.	.	16b\LL	.	16gg\LL	.	.	.	.	.	.	.	.	.	.	.	.
16d|\	.	.	16dd\	.	16dd\	.	.	.	.	.	.	.	.	.	.	.	.
16B|\	.	.	16b\	.	16b\	.	.	.	.	.	.	.	.	.	.	.	.
16G|\JJ	.	.	16g\JJ	.	16g\JJ	.	.	.	.	.	.	.	.	.	.	.	.
!	!	!	!	!	!LO:LB:g=original	!	!	!	!	!	!	!	!	!	!	!	!
=60	=60	=60	=60	=60	=60	=60	=60	=60	=60	=60	=60	=60	=60	=60	=60	=60	=60
!LO:TX:t=P:problem=mixed beam	!	!	!LO:TX:t=P:problem=mixed beam	!	!LO:TX:t=P:problem=mixed beam	!	!	!	!	!	!	!	!	!	!	!	!
8d\L	.	.	8dd\L	.	8dd\L	.	2ryy	0r	.	0r	.	0r	.	2ryy	2ryy	2ryy	2ryy
8D/J	.	.	8d/J	.	8d/J	.	.	.	.	.	.	.	.	.	.	.	.
4r	.	.	8r	.	8r	.	.	.	.	.	.	.	.	.	.	.	.
.	.	.	8d/	.	8d/	p	.	.	.	.	.	.	.	.	.	.	.
=61	=61	=61	=61	=61	=61	=61	=61	=61	=61	=61	=61	=61	=61	=61	=61	=61	=61
2r	.	.	16G/LL	.	16g|\LL	.	2ryy	.	.	.	.	.	.	2ryy	2ryy	2ryy	2ryy
!	!	!	!	!LO:DY:t=pia&colon;	!	!	!	!	!	!	!	!	!	!	!	!	!
.	.	.	16A/	p	16a|\	.	.	.	.	.	.	.	.	.	.	.	.
.	.	.	16B/	.	16b|\	.	.	.	.	.	.	.	.	.	.	.	.
.	.	.	16c/JJ	.	16cc|\JJ	.	.	.	.	.	.	.	.	.	.	.	.
.	.	.	16d/LL	.	16dd'\LL	.	.	.	.	.	.	.	.	.	.	.	.
.	.	.	16e/	.	16ee'\	.	.	.	.	.	.	.	.	.	.	.	.
.	.	.	16f#/	.	16ff#'\	.	.	.	.	.	.	.	.	.	.	.	.
.	.	.	16g/JJ	.	16gg'\JJ	.	.	.	.	.	.	.	.	.	.	.	.
!	!	!	!LO:LB:g=original	!	!	!	!	!	!	!	!	!	!	!	!	!	!
=62	=62	=62	=62	=62	=62	=62	=62	=62	=62	=62	=62	=62	=62	=62	=62	=62	=62
4G\	.	.	24d/LL	.	24dd\LL	.	2ryy	.	.	.	.	.	.	2ryy	2ryy	2ryy	2ryy
.	.	.	24B/	.	24b\	.	.	.	.	.	.	.	.	.	.	.	.
.	.	.	24G/JJ	.	24g\JJ	.	.	.	.	.	.	.	.	.	.	.	.
.	.	.	24g/LL	.	24gg\LL	.	.	.	.	.	.	.	.	.	.	.	.
.	.	.	24d/	.	24dd\	.	.	.	.	.	.	.	.	.	.	.	.
.	.	.	24B/JJ	.	24b\JJ	.	.	.	.	.	.	.	.	.	.	.	.
4r	.	.	24d/LL	.	24dd\LL	.	.	.	.	.	.	.	.	.	.	.	.
.	.	.	24B/	.	24b\	.	.	.	.	.	.	.	.	.	.	.	.
.	.	.	24G/JJ	.	24g\JJ	.	.	.	.	.	.	.	.	.	.	.	.
.	.	.	24g/LL	.	24gg\LL	.	.	.	.	.	.	.	.	.	.	.	.
.	.	.	24d/	.	24dd\	.	.	.	.	.	.	.	.	.	.	.	.
.	.	.	24B/JJ	.	24b\JJ	.	.	.	.	.	.	.	.	.	.	.	.
!LO:LB:g=original	!	!	!	!	!	!	!	!	!	!	!	!	!	!	!	!	!
=63	=63	=63	=63	=63	=63	=63	=63	=63	=63	=63	=63	=63	=63	=63	=63	=63	=63
16G\LL	.	.	24b/LL	.	24bb\LL	.	2ryy	.	.	.	.	.	.	2ryy	2ryy	2ryy	2ryy
.	.	.	24g/	.	24gg\	.	.	.	.	.	.	.	.	.	.	.	.
16G\	.	.	.	.	.	.	.	.	.	.	.	.	.	.	.	.	.
.	.	.	24d/JJ	.	24dd\JJ	.	.	.	.	.	.	.	.	.	.	.	.
16C\	.	.	24g/LL	.	24gg\LL	.	.	.	.	.	.	.	.	.	.	.	.
.	.	.	24e/	.	24ee\	.	.	.	.	.	.	.	.	.	.	.	.
16C\JJ	.	.	.	.	.	.	.	.	.	.	.	.	.	.	.	.	.
.	.	.	24c/JJ	.	24cc\JJ	.	.	.	.	.	.	.	.	.	.	.	.
!LO:TX:t=P:problem=mixed beam	!	!	!	!	!	!	!	!	!	!	!	!	!	!	!	!	!
16D\LL	.	.	16d/LL	.	8b/L	.	.	.	.	.	.	.	.	.	.	.	.
16D\	.	.	16g/J	.	.	.	.	.	.	.	.	.	.	.	.	.	.
16DD/	.	.	8f#/J	.	8aT/J	.	.	.	.	.	.	.	.	.	.	.	.
16DD/JJ	.	.	.	.	.	.	.	.	.	.	.	.	.	.	.	.	.
=64	=64	=64	=64	=64	=64	=64	=64	=64	=64	=64	=64	=64	=64	=64	=64	=64	=64
4GG/	.	.	8g/L	.	8g/L	.	2ryy	2r	.	2r	.	2r	.	2ryy	2ryy	2ryy	2ryy
.	.	.	(32d/LL	.	(32d/LL	.	.	.	.	.	.	.	.	.	.	.	.
.	.	.	32c/	.	32c/	.	.	.	.	.	.	.	.	.	.	.	.
.	.	.	32B/	.	32B/	.	.	.	.	.	.	.	.	.	.	.	.
.	.	.	32A/JJJ)	.	32A/JJJ)	.	.	.	.	.	.	.	.	.	.	.	.
!	!	!	!LO:N:vis=4	!	!	!	!	!	!	!	!	!	!	!	!	!	!
!	!	!	!LO:TX:b:t=V. Rosa.	!	!	!	!	!	!	!	!	!	!	!	!	!	!
4r	.	.	8G/	.	8G/	.	.	.	.	.	.	.	.	.	.	.	.
!	!	!	!	!	!LO:TX:b:t=V&colon; Rosa	!	!	!	!	!	!	!	!	!	!	!	!
.	.	.	8ryy	.	8r	.	.	.	.	.	.	.	.	.	.	.	.
==	==	==	==	==	==	==	==	==	==	==	==	==	==	==	==	==	==
*-	*-	*-	*-	*-	*-	*-	*-	*-	*-	*-	*-	*-	*-	*-	*-	*-	*-
!!!system-decoration: [(s1,s2)][(s3,s4)][(s5,s6,s7,s8)][(s9,s10)]s11
!!!RDF**kern: | = vertical stroke
!!!RDF**dynam: p = pia
!!!RDF**dynam: f = for
!!!ENC: Krzysztof Stępień
!!!END: 2020-09-11
!!!ENC: Leszek Kubiak
!!!END: 2022-01-26
